packages/icons/src/assets/bar-graph.svg

<svg xmlns="http://www.w3.org/2000/svg" xml:space="preserve" style="fill-rule:evenodd;clip-rule:evenodd;stroke-linejoin:round;stroke-miterlimit:2" viewBox="0 0 24 24"><path d="m10.382 10.929-3.34-3.333-2.248 2.247L3.73 8.787l3.311-3.311 3.341 3.333 4.3-4.3H12V3.011h5.243v5.244h-1.498v-2.69zm-2.127 10.06H3.76V11.25h4.495zm-1.498-8.24H5.258v6.742h1.499zm2.996 8.24h4.494v-7.49H9.753zm1.498-5.993h1.498v4.495h-1.498zm4.494 5.993V9.753h4.495v11.236zm1.498-1.498h1.499v-8.24h-1.499z"/></svg>

<svg width="100%" height="100%" viewBox="0 0 24 24" version="1.1" xmlns="http://www.w3.org/2000/svg" xmlns:xlink="http://www.w3.org/1999/xlink" xml:space="preserve" style="fill-rule:evenodd;clip-rule:evenodd;stroke-linejoin:round;stroke-miterlimit:2;"><path d="M10.382,10.929L7.042,7.596L4.794,9.843L3.73,8.787L7.041,5.476L10.382,8.809L14.682,4.509L12,4.509L12,3.011L17.243,3.011L17.243,8.255L15.745,8.255L15.745,5.565L10.382,10.929ZM8.255,20.989L3.76,20.989L3.76,11.25L8.255,11.25L8.255,20.989ZM6.757,12.749L5.258,12.749L5.258,19.491L6.757,19.491L6.757,12.749ZM9.753,20.989L14.247,20.989L14.247,13.499L9.753,13.499L9.753,20.989ZM11.251,14.996L12.749,14.996L12.749,19.491L11.251,19.491L11.251,14.996ZM15.745,20.989L15.745,9.753L20.24,9.753L20.24,20.989L15.745,20.989ZM17.243,19.491L18.742,19.491L18.742,11.251L17.243,11.251L17.243,19.491Z"/></svg>
